!!!OTL: "Das Lehen" HERBEI HERBEI WAS JUNGGESELLEN SEYN
!!!ARE: Europa, Mitteleuropa, Deutschland, Niederrhein
!!!SCT: Z1320
!!!YEM: Copyright 1995, estate of Helmut Schaffrath.
**kern
*ICvox
*Ivox
*M4/4
*k[f#]
*G:
{4a
4f#
=1
2g
4a
4f#
=2
2g}
{2a
=3
2g
2a
=4
2g
4f#
4e
=5
2d
4r}
{4d
=6
4.g
8f#
4e
8a
8g
=7
4.f#
8e
4.d}
{8d
=8
4.g
8a
4b
4b
=9
8b
8a
4a
2g}
=10
{4.f#
8a
4b
4dd
=11
2ee
2dd}
=12
{2ee
2dd
=13
4.ee
8dd
4cc
4b
=14
2a
4g
4r
=15
2r}
==
!!!AGN: Zech -, Schalks - Lied
!!!ONB: ESAC (Essen Associative Code) Database: ZUCCAL
!!!AMT: simple quadruple
!!!AIN: vox
!!!EED: Helmut Schaffrath
!!!EEV: 1.0
*-
